Newaita-dark/apps/32/tor.svg

<svg height="32" viewBox="0 0 32 32" width="32" xmlns="http://www.w3.org/2000/svg" xmlns:xlink="http://www.w3.org/1999/xlink"><linearGradient id="a"><stop offset="0" stop-opacity=".313726"/><stop offset=".222222" stop-opacity=".27451"/><stop offset="1" stop-opacity="0"/></linearGradient><radialGradient id="b" cx="450.908936" cy="189.579361" gradientTransform="matrix(.00000017 -.0781325 -.140638 -.0000001 44.523152 63.595329)" gradientUnits="userSpaceOnUse" r="21.166656" xlink:href="#a"/><radialGradient id="c" cx="450.908936" cy="189.579361" gradientTransform="matrix(-.00000017 .0781325 .140638 .0000001 -12.770119 -7.527482)" gradientUnits="userSpaceOnUse" r="21.166656" xlink:href="#a"/><radialGradient id="d" cx="450.908936" cy="189.579361" gradientTransform="matrix(-.00000017 -.0781325 .140638 -.0000001 -12.770119 63.595329)" gradientUnits="userSpaceOnUse" r="21.166656" xlink:href="#a"/><radialGradient id="e" cx="450.908936" cy="189.579361" gradientTransform="matrix(.00000017 .0781325 -.140638 .0000001 44.52315 -7.527483)" gradientUnits="userSpaceOnUse" r="21.166656" xlink:href="#a"/><linearGradient id="f" gradientTransform="matrix(.0133601 0 0 .062506 12.465386 13.438784)" gradientUnits="userSpaceOnUse" x1="255.323059" x2="255.323044" y1="233.5" y2="254.666656"><stop offset="0" stop-opacity=".27451"/><stop offset="1" stop-opacity="0"/></linearGradient><linearGradient id="g" gradientUnits="userSpaceOnUse" x1="254" x2="254" y1="-168.666672" y2="233.5"><stop offset="0" stop-color="#ba68c8"/><stop offset="1" stop-color="#ab47bc"/></linearGradient><linearGradient id="h" gradientUnits="userSpaceOnUse" x1="18.52256" x2="18.52256" y1="30.67994419623" y2="1.57306331972"><stop offset="0" stop-color="#e0e0e0"/><stop offset="1" stop-color="#eee"/></linearGradient><path d="m18.191406 28.035156h2.648438v-1.324218h-2.648438zm0 0" fill="url(#b)"/><path d="m13.5625 28.035156h-2.648438v1.320313h2.648438zm0 0" fill="url(#c)"/><path d="m13.5625 28.035156h-2.648438v-1.324218h2.648438zm0 0" fill="url(#d)"/><path d="m18.191406 28.035156h2.648438v1.320313h-2.648438zm0 0" fill="url(#e)"/><path d="m13.5625 27.703125h4.628906v1.652344h-4.628906zm0 0" fill="url(#f)"/><path d="m253.975747-168.691922c111.051895 0 201.105795 90.0539 201.105795 201.105795s-90.0539 201.105796-201.105795 201.105796c-111.051896 0-201.043302-90.053901-201.043302-201.105796s89.991406-201.105795 201.043302-201.105795zm0 0" fill="url(#g)" stroke="#333" stroke-linecap="round" stroke-width="3" transform="matrix(.062506 0 0 .062506 0 13.438783)"/><path d="m15.875 28.035156c-6.960938 0-12.566406-5.605468-12.566406-12.570312 0-.039063 0-.082032 0-.121094.066406 6.902344 5.644531 12.445312 12.566406 12.445312s12.503906-5.542968 12.570312-12.445312v.121094c0 6.964844-5.605468 12.570312-12.570312 12.570312zm0 0" fill-opacity=".196078"/><path d="m15.875 2.894531c-6.960938 0-12.566406 5.605469-12.566406 12.570313v.125c.066406-6.90625 5.644531-12.449219 12.566406-12.449219s12.503906 5.542969 12.570312 12.449219c0-.042969 0-.082032 0-.125 0-6.964844-5.605468-12.570313-12.570312-12.570313zm0 0" fill="#fff" fill-opacity=".392157"/><path d="m15.875 2.800781c-7.011719 0-12.660156 5.652344-12.660156 12.664063 0 7.011718 5.648437 12.664062 12.660156 12.664062 7.015625 0 12.664062-5.652344 12.664062-12.664062 0-7.011719-5.648437-12.664063-12.664062-12.664063zm0 .1875c6.914062 0 12.476562 5.5625 12.476562 12.476563 0 6.914062-5.5625 12.476562-12.476562 12.476562-6.910156 0-12.472656-5.5625-12.472656-12.476562 0-6.914063 5.5625-12.476563 12.472656-12.476563zm0 0" fill="#212121"/><path d="m15.875 4.878906v1.984375c4.765625 0 8.601562 3.835938 8.601562 8.601563s-3.835937 8.601562-8.601562 8.601562v1.984375c5.867188 0 10.585938-4.722656 10.585938-10.585937 0-5.863282-4.71875-10.585938-10.585938-10.585938zm0 3.972656v1.984376c2.566406 0 4.632812 2.0625 4.632812 4.628906s-2.066406 4.628906-4.632812 4.628906v1.988281c3.667969 0 6.617188-2.953125 6.617188-6.617187 0-3.664063-2.949219-6.613282-6.617188-6.613282zm0 3.96875v5.289063c1.46875 0 2.648438-1.179687 2.648438-2.644531s-1.179688-2.644532-2.648438-2.644532zm0 0" fill="url(#h)"/><path d="m15.84375 4.878906v.367188c2.117188-.015625 4.234375.625 5.984375 1.828125 1.96875 1.335937 3.460937 3.359375 4.144531 5.640625.289063.945312.4375 1.929687.453125 2.917968.046875.144532.082031-.050781.066407-.117187.019531-2.15625-.640626-4.316406-1.871094-6.089844-1.347656-1.960937-3.375-3.445312-5.660156-4.125-1.007813-.304687-2.0625-.457031-3.117188-.453125zm0 3.972656v.363282c1.527344-.015625 3.054688.523437 4.234375 1.503906 1.289063 1.0625 2.148437 2.632812 2.335937 4.292969.027344.210937.03125.425781.050782.632812.046875.125.070312-.082031.058594-.136719.019531-1.582031-.554688-3.164062-1.585938-4.363281-1.078125-1.273437-2.652344-2.109375-4.3125-2.285156-.257812-.03125-.519531-.042969-.78125-.042969zm0 3.96875v.363282c.878906-.019532 1.75.441406 2.222656 1.183594.246094.375.390625.816406.417969 1.265624.03125.140626.078125-.011718.070313-.082031.035156-.875-.390626-1.746093-1.097657-2.253906-.464843-.339844-1.039062-.519531-1.613281-.511719zm4.628906 2.808594c-.035156 1.234375-.601562 2.445313-1.527344 3.265625-.839843.757813-1.972656 1.179688-3.101562 1.167969v.398438c1.246094.015624 2.488281-.496094 3.355469-1.386719.898437-.898438 1.390625-2.179688 1.335937-3.445313-.035156-.078125-.027344-.085937-.0625 0zm3.96875 0c-.027344 1.808594-.644531 3.601563-1.75 5.039063-1.214844 1.597656-3.003906 2.742187-4.964844 3.164062-.617187.136719-1.25.203125-1.882812.199219v.398438c1.828125.011718 3.660156-.574219 5.132812-1.660157 1.625-1.179687 2.8125-2.945312 3.28125-4.894531.183594-.734375.265626-1.492188.25-2.246094-.035156-.078125-.027343-.082031-.066406 0zm0 0" fill-opacity=".235294"/><path d="m15.875 6.863281v.5c4.683594 0 8.46875 3.703125 8.597656 8.351563.003906-.085938.003906-.167969.003906-.25 0-4.765625-3.835937-8.601563-8.601562-8.601563zm0 3.972657v.496093c2.484375 0 4.496094 1.933594 4.625 4.382813.003906-.082032.007812-.167969.007812-.25 0-2.566406-2.066406-4.628906-4.632812-4.628906zm2.636719 4.878906c-.125 1.347656-1.253907 2.394531-2.636719 2.394531v.496094c1.46875 0 2.648438-1.179688 2.648438-2.644531 0-.082032-.003907-.167969-.011719-.246094zm3.976562 0c-.128906 3.546875-3.03125 6.367187-6.613281 6.367187v.496094c3.667969 0 6.617188-2.953125 6.617188-6.617187 0-.082032-.003907-.164063-.003907-.246094zm3.96875 0c-.128906 5.746094-4.800781 10.335937-10.582031 10.335937v.496094c5.867188 0 10.585938-4.722656 10.585938-10.585937 0-.082032 0-.164063-.003907-.246094zm0 0" fill="#fff" fill-opacity=".313726"/><path d="m959.908384 295.011213v119.988548c288.161473 0 520.10784 231.946367 520.10784 520.10784 0 288.161474-231.946367 520.10784-520.10784 520.10784v119.988548c354.769289 0 640.096388-285.563296 640.096388-640.096388 0-354.533091-285.327099-640.096388-640.096388-640.096388zm0 240.213294v119.988548c155.182039 0 280.130744 124.712507 280.130744 279.894546 0 155.18204-124.948705 279.894546-280.130744 279.894546v120.224746c221.789855 0 400.119292-178.565634 400.119292-400.119292 0-221.553657-178.329437-399.883094-400.119292-399.883094zm0 239.977096v319.811996c88.810421 0 160.142196-71.331774 160.142196-159.905998 0-88.574223-71.331775-159.905998-160.142196-159.905998zm0 0" fill="none" stroke="#212121" stroke-width="11.338583" transform="scale(.016538)"/></svg>

<?xml version="1.0" encoding="UTF-8"?>
<svg xmlns="http://www.w3.org/2000/svg" xmlns:xlink="http://www.w3.org/1999/xlink" width="32px" height="32px" viewBox="0 0 32 32" version="1.1">
<defs>
<radialGradient id="radial0" gradientUnits="userSpaceOnUse" cx="450.908936" cy="189.579361" fx="450.908936" fy="189.579361" r="21.166656" gradientTransform="matrix(0.00000017417,-0.0781325,-0.140638,-0.000000101539,44.523152,63.595329)">
<stop offset="0" style="stop-color:rgb(0%,0%,0%);stop-opacity:0.313726;"/>
<stop offset="0.222222" style="stop-color:rgb(0%,0%,0%);stop-opacity:0.27451;"/>
<stop offset="1" style="stop-color:rgb(0%,0%,0%);stop-opacity:0;"/>
</radialGradient>
<radialGradient id="radial1" gradientUnits="userSpaceOnUse" cx="450.908936" cy="189.579361" fx="450.908936" fy="189.579361" r="21.166656" gradientTransform="matrix(-0.00000017417,0.0781325,0.140638,0.000000101539,-12.770119,-7.527482)">
<stop offset="0" style="stop-color:rgb(0%,0%,0%);stop-opacity:0.313726;"/>
<stop offset="0.222222" style="stop-color:rgb(0%,0%,0%);stop-opacity:0.27451;"/>
<stop offset="1" style="stop-color:rgb(0%,0%,0%);stop-opacity:0;"/>
</radialGradient>
<radialGradient id="radial2" gradientUnits="userSpaceOnUse" cx="450.908936" cy="189.579361" fx="450.908936" fy="189.579361" r="21.166656" gradientTransform="matrix(-0.00000017417,-0.0781325,0.140638,-0.000000101539,-12.770119,63.595329)">
<stop offset="0" style="stop-color:rgb(0%,0%,0%);stop-opacity:0.313726;"/>
<stop offset="0.222222" style="stop-color:rgb(0%,0%,0%);stop-opacity:0.27451;"/>
<stop offset="1" style="stop-color:rgb(0%,0%,0%);stop-opacity:0;"/>
</radialGradient>
<radialGradient id="radial3" gradientUnits="userSpaceOnUse" cx="450.908936" cy="189.579361" fx="450.908936" fy="189.579361" r="21.166656" gradientTransform="matrix(0.00000017417,0.0781325,-0.140638,0.000000101539,44.52315,-7.527483)">
<stop offset="0" style="stop-color:rgb(0%,0%,0%);stop-opacity:0.313726;"/>
<stop offset="0.222222" style="stop-color:rgb(0%,0%,0%);stop-opacity:0.27451;"/>
<stop offset="1" style="stop-color:rgb(0%,0%,0%);stop-opacity:0;"/>
</radialGradient>
<linearGradient id="linear0" gradientUnits="userSpaceOnUse" x1="255.323059" y1="233.5" x2="255.323044" y2="254.666656" gradientTransform="matrix(0.0133601,0,0,0.062506,12.465386,13.438784)">
<stop offset="0" style="stop-color:rgb(0%,0%,0%);stop-opacity:0.27451;"/>
<stop offset="1" style="stop-color:rgb(0%,0%,0%);stop-opacity:0;"/>
</linearGradient>
<linearGradient id="linear1" gradientUnits="userSpaceOnUse" x1="254" y1="-168.666672" x2="254" y2="233.5" >
<stop offset="0" style="stop-color:rgb(72.941178%,40.784314%,78.431374%);stop-opacity:1;"/>
<stop offset="1" style="stop-color:rgb(67.058825%,27.843139%,73.725492%);stop-opacity:1;"/>
</linearGradient>
<linearGradient id="linear2" gradientUnits="userSpaceOnUse" x1="1120" y1="1855.118164" x2="1120" y2="95.118111" gradientTransform="matrix(0.016538,0,0,0.016538,0,0)">
<stop offset="0" style="stop-color:rgb(87.843138%,87.843138%,87.843138%);stop-opacity:1;"/>
<stop offset="1" style="stop-color:rgb(93.333334%,93.333334%,93.333334%);stop-opacity:1;"/>
</linearGradient>
</defs>
<g id="surface1">
<path style=" stroke:none;fill-rule:nonzero;fill:url(#radial0);" d="M 18.191406 28.035156 L 20.839844 28.035156 L 20.839844 26.710938 L 18.191406 26.710938 Z M 18.191406 28.035156 "/>
<path style=" stroke:none;fill-rule:nonzero;fill:url(#radial1);" d="M 13.5625 28.035156 L 10.914062 28.035156 L 10.914062 29.355469 L 13.5625 29.355469 Z M 13.5625 28.035156 "/>
<path style=" stroke:none;fill-rule:nonzero;fill:url(#radial2);" d="M 13.5625 28.035156 L 10.914062 28.035156 L 10.914062 26.710938 L 13.5625 26.710938 Z M 13.5625 28.035156 "/>
<path style=" stroke:none;fill-rule:nonzero;fill:url(#radial3);" d="M 18.191406 28.035156 L 20.839844 28.035156 L 20.839844 29.355469 L 18.191406 29.355469 Z M 18.191406 28.035156 "/>
<path style=" stroke:none;fill-rule:nonzero;fill:url(#linear0);" d="M 13.5625 27.703125 L 18.191406 27.703125 L 18.191406 29.355469 L 13.5625 29.355469 Z M 13.5625 27.703125 "/>
<path style="fill-rule:nonzero;fill:url(#linear1);stroke-width:3;stroke-linecap:round;stroke-linejoin:miter;stroke:rgb(20%,20%,20%);stroke-opacity:1;stroke-miterlimit:4;" d="M 253.975747 -168.691922 C 365.027642 -168.691922 455.081542 -78.638022 455.081542 32.413873 C 455.081542 143.465768 365.027642 233.519669 253.975747 233.519669 C 142.923851 233.519669 52.932445 143.465768 52.932445 32.413873 C 52.932445 -78.638022 142.923851 -168.691922 253.975747 -168.691922 Z M 253.975747 -168.691922 " transform="matrix(0.062506,0,0,0.062506,0,13.438783)"/>
<path style=" stroke:none;fill-rule:nonzero;fill:rgb(0%,0%,0%);fill-opacity:0.196078;" d="M 15.875 28.035156 C 8.914062 28.035156 3.308594 22.429688 3.308594 15.464844 C 3.308594 15.425781 3.308594 15.382812 3.308594 15.34375 C 3.375 22.246094 8.953125 27.789062 15.875 27.789062 C 22.796875 27.789062 28.378906 22.246094 28.445312 15.34375 C 28.445312 15.382812 28.445312 15.425781 28.445312 15.464844 C 28.445312 22.429688 22.839844 28.035156 15.875 28.035156 Z M 15.875 28.035156 "/>
<path style=" stroke:none;fill-rule:nonzero;fill:rgb(100%,100%,100%);fill-opacity:0.392157;" d="M 15.875 2.894531 C 8.914062 2.894531 3.308594 8.5 3.308594 15.464844 C 3.308594 15.507812 3.308594 15.546875 3.308594 15.589844 C 3.375 8.683594 8.953125 3.140625 15.875 3.140625 C 22.796875 3.140625 28.378906 8.683594 28.445312 15.589844 C 28.445312 15.546875 28.445312 15.507812 28.445312 15.464844 C 28.445312 8.5 22.839844 2.894531 15.875 2.894531 Z M 15.875 2.894531 "/>
<path style=" stroke:none;fill-rule:nonzero;fill:rgb(12.941177%,12.941177%,12.941177%);fill-opacity:1;" d="M 15.875 2.800781 C 8.863281 2.800781 3.214844 8.453125 3.214844 15.464844 C 3.214844 22.476562 8.863281 28.128906 15.875 28.128906 C 22.890625 28.128906 28.539062 22.476562 28.539062 15.464844 C 28.539062 8.453125 22.890625 2.800781 15.875 2.800781 Z M 15.875 2.988281 C 22.789062 2.988281 28.351562 8.550781 28.351562 15.464844 C 28.351562 22.378906 22.789062 27.941406 15.875 27.941406 C 8.964844 27.941406 3.402344 22.378906 3.402344 15.464844 C 3.402344 8.550781 8.964844 2.988281 15.875 2.988281 Z M 15.875 2.988281 "/>
<path style=" stroke:none;fill-rule:nonzero;fill:url(#linear2);" d="M 15.875 4.878906 L 15.875 6.863281 C 20.640625 6.863281 24.476562 10.699219 24.476562 15.464844 C 24.476562 20.230469 20.640625 24.066406 15.875 24.066406 L 15.875 26.050781 C 21.742188 26.050781 26.460938 21.328125 26.460938 15.464844 C 26.460938 9.601562 21.742188 4.878906 15.875 4.878906 Z M 15.875 8.851562 L 15.875 10.835938 C 18.441406 10.835938 20.507812 12.898438 20.507812 15.464844 C 20.507812 18.03125 18.441406 20.09375 15.875 20.09375 L 15.875 22.082031 C 19.542969 22.082031 22.492188 19.128906 22.492188 15.464844 C 22.492188 11.800781 19.542969 8.851562 15.875 8.851562 Z M 15.875 12.820312 L 15.875 18.109375 C 17.34375 18.109375 18.523438 16.929688 18.523438 15.464844 C 18.523438 14 17.34375 12.820312 15.875 12.820312 Z M 15.875 12.820312 "/>
<path style=" stroke:none;fill-rule:nonzero;fill:rgb(0%,0%,0%);fill-opacity:0.235294;" d="M 15.84375 4.878906 C 15.84375 5 15.84375 5.125 15.84375 5.246094 C 17.960938 5.230469 20.078125 5.871094 21.828125 7.074219 C 23.796875 8.410156 25.289062 10.433594 25.972656 12.714844 C 26.261719 13.660156 26.410156 14.644531 26.425781 15.632812 C 26.472656 15.777344 26.507812 15.582031 26.492188 15.515625 C 26.511719 13.359375 25.851562 11.199219 24.621094 9.425781 C 23.273438 7.464844 21.246094 5.980469 18.960938 5.300781 C 17.953125 4.996094 16.898438 4.84375 15.84375 4.847656 C 15.84375 4.859375 15.84375 4.871094 15.84375 4.878906 Z M 15.84375 8.851562 C 15.84375 8.972656 15.84375 9.09375 15.84375 9.214844 C 17.371094 9.199219 18.898438 9.738281 20.078125 10.71875 C 21.367188 11.78125 22.226562 13.351562 22.414062 15.011719 C 22.441406 15.222656 22.445312 15.4375 22.464844 15.644531 C 22.511719 15.769531 22.535156 15.5625 22.523438 15.507812 C 22.542969 13.925781 21.96875 12.34375 20.9375 11.144531 C 19.859375 9.871094 18.285156 9.035156 16.625 8.859375 C 16.367188 8.828125 16.105469 8.816406 15.84375 8.816406 C 15.84375 8.828125 15.84375 8.839844 15.84375 8.851562 Z M 15.84375 12.820312 C 15.84375 12.941406 15.84375 13.0625 15.84375 13.183594 C 16.722656 13.164062 17.59375 13.625 18.066406 14.367188 C 18.3125 14.742188 18.457031 15.183594 18.484375 15.632812 C 18.515625 15.773438 18.5625 15.621094 18.554688 15.550781 C 18.589844 14.675781 18.164062 13.804688 17.457031 13.296875 C 16.992188 12.957031 16.417969 12.777344 15.84375 12.785156 C 15.84375 12.796875 15.84375 12.808594 15.84375 12.820312 Z M 20.472656 15.628906 C 20.4375 16.863281 19.871094 18.074219 18.945312 18.894531 C 18.105469 19.652344 16.972656 20.074219 15.84375 20.0625 C 15.84375 20.195312 15.84375 20.328125 15.84375 20.460938 C 17.089844 20.476562 18.332031 19.964844 19.199219 19.074219 C 20.097656 18.175781 20.589844 16.894531 20.535156 15.628906 C 20.5 15.550781 20.507812 15.542969 20.472656 15.628906 Z M 24.441406 15.628906 C 24.414062 17.4375 23.796875 19.230469 22.691406 20.667969 C 21.476562 22.265625 19.6875 23.410156 17.726562 23.832031 C 17.109375 23.96875 16.476562 24.035156 15.84375 24.03125 C 15.84375 24.164062 15.84375 24.296875 15.84375 24.429688 C 17.671875 24.441406 19.503906 23.855469 20.976562 22.769531 C 22.601562 21.589844 23.789062 19.824219 24.257812 17.875 C 24.441406 17.140625 24.523438 16.382812 24.507812 15.628906 C 24.472656 15.550781 24.480469 15.546875 24.441406 15.628906 Z M 24.441406 15.628906 "/>
<path style=" stroke:none;fill-rule:nonzero;fill:rgb(100%,100%,100%);fill-opacity:0.313726;" d="M 15.875 6.863281 L 15.875 7.363281 C 20.558594 7.363281 24.34375 11.066406 24.472656 15.714844 C 24.476562 15.628906 24.476562 15.546875 24.476562 15.464844 C 24.476562 10.699219 20.640625 6.863281 15.875 6.863281 Z M 15.875 10.835938 L 15.875 11.332031 C 18.359375 11.332031 20.371094 13.265625 20.5 15.714844 C 20.503906 15.632812 20.507812 15.546875 20.507812 15.464844 C 20.507812 12.898438 18.441406 10.835938 15.875 10.835938 Z M 18.511719 15.714844 C 18.386719 17.0625 17.257812 18.109375 15.875 18.109375 L 15.875 18.605469 C 17.34375 18.605469 18.523438 17.425781 18.523438 15.960938 C 18.523438 15.878906 18.519531 15.792969 18.511719 15.714844 Z M 22.488281 15.714844 C 22.359375 19.261719 19.457031 22.082031 15.875 22.082031 L 15.875 22.578125 C 19.542969 22.578125 22.492188 19.625 22.492188 15.960938 C 22.492188 15.878906 22.488281 15.796875 22.488281 15.714844 Z M 26.457031 15.714844 C 26.328125 21.460938 21.65625 26.050781 15.875 26.050781 L 15.875 26.546875 C 21.742188 26.546875 26.460938 21.824219 26.460938 15.960938 C 26.460938 15.878906 26.460938 15.796875 26.457031 15.714844 Z M 26.457031 15.714844 "/>
<path style="fill:none;stroke-width:11.338583;stroke-linecap:butt;stroke-linejoin:miter;stroke:rgb(12.941177%,12.941177%,12.941177%);stroke-opacity:1;stroke-miterlimit:4;" d="M 959.908384 295.011213 L 959.908384 414.999761 C 1248.069857 414.999761 1480.016224 646.946128 1480.016224 935.107601 C 1480.016224 1223.269075 1248.069857 1455.215441 959.908384 1455.215441 L 959.908384 1575.203989 C 1314.677673 1575.203989 1600.004772 1289.640693 1600.004772 935.107601 C 1600.004772 580.57451 1314.677673 295.011213 959.908384 295.011213 Z M 959.908384 535.224507 L 959.908384 655.213055 C 1115.090423 655.213055 1240.039128 779.925562 1240.039128 935.107601 C 1240.039128 1090.289641 1115.090423 1215.002147 959.908384 1215.002147 L 959.908384 1335.226893 C 1181.698239 1335.226893 1360.027676 1156.661259 1360.027676 935.107601 C 1360.027676 713.553944 1181.698239 535.224507 959.908384 535.224507 Z M 959.908384 775.201603 L 959.908384 1095.013599 C 1048.718805 1095.013599 1120.05058 1023.681825 1120.05058 935.107601 C 1120.05058 846.533378 1048.718805 775.201603 959.908384 775.201603 Z M 959.908384 775.201603 " transform="matrix(0.016538,0,0,0.016538,0,0)"/>
</g>
</svg>
